interface/resources/icons/android/vr-a.svg

<?xml version="1.0" encoding="UTF-8" standalone="no"?>
<svg
   xmlns:dc="http://purl.org/dc/elements/1.1/"
   xmlns:cc="http://creativecommons.org/ns#"
   xmlns:rdf="http://www.w3.org/1999/02/22-rdf-syntax-ns#"
   xmlns:svg="http://www.w3.org/2000/svg"
   xmlns="http://www.w3.org/2000/svg"
   xmlns:sodipodi="http://sodipodi.sourceforge.net/DTD/sodipodi-0.dtd"
   xmlns:inkscape="http://www.inkscape.org/namespaces/inkscape"
   viewBox="0 0 33.96 33.96"
   id="svg2"
   version="1.1"
   inkscape:version="0.91 r13725"
   sodipodi:docname="vr-a.svg">
  <metadata
     id="metadata17">
    <rdf:RDF>
      <cc:Work
         rdf:about="">
        <dc:format>image/svg+xml</dc:format>
        <dc:type
           rdf:resource="http://purl.org/dc/dcmitype/StillImage" />
      </cc:Work>
    </rdf:RDF>
  </metadata>
  <sodipodi:namedview
     pagecolor="#ffffff"
     bordercolor="#666666"
     borderopacity="1"
     objecttolerance="10"
     gridtolerance="10"
     guidetolerance="10"
     inkscape:pageopacity="0"
     inkscape:pageshadow="2"
     inkscape:window-width="1282"
     inkscape:window-height="696"
     id="namedview15"
     showgrid="false"
     inkscape:zoom="6.9493524"
     inkscape:cx="18.425447"
     inkscape:cy="16.98"
     inkscape:window-x="0"
     inkscape:window-y="0"
     inkscape:window-maximized="0"
     inkscape:current-layer="svg2" />
  <defs
     id="defs4">
    <style
       type="text/css"
       id="style6">.cls-1{fill:#ffffff;}</style>
  </defs>
  <title
     id="title8">Asset 4</title>
  <g
     id="Layer_2"
     data-name="Layer 2"
     transform="translate(0,8)">
    <g
       id="Layer_1-2"
       data-name="Layer 1">
      <g
         id="Layer_1-3"
         data-name="Layer 1">
        <path
           class="cls-1"
           d="m 27,20.43 -5.6,0 c -0.92,0 -1.42,-0.72 -2.51,-2.61 L 18.82,17.7 c -0.37,-0.72 -1.18,-2.29 -1.76,-2.29 -0.58,0 -1.3,1.36 -1.75,2.18 -1.26,2.13 -2,2.83 -2.89,2.83 l -5.48,0 C 3.11,20.42 0,16.81 0,12.42 L 0,8 C 0,3.61 3.11,0 6.94,0 L 27,0 c 3.84,0 7,3.61 7,8 l 0,4.4 c 0,4.43 -3.16,8.03 -7,8.03 z m -5.13,-2.5 5.13,0 c 2.45,0 4.44,-2.48 4.44,-5.54 l 0,-4.39 c 0,-3.05 -2,-5.54 -4.44,-5.54 l -20.06,0 C 4.49,2.5 2.5,5 2.5,8 l 0,4.4 c 0,3.05 2,5.54 4.44,5.54 l 5.13,0 a 10.63,10.63 0 0 0 1.06,-1.57 c 0.78,-1.42 1.86,-3.42 3.89,-3.44 l 0,0 c 2.11,0 3.22,2.16 4,3.59 l 0,0.06 c 0.18,0.26 0.59,0.96 0.86,1.35 z"
           id="path13"
           inkscape:connector-curvature="0"
           style="fill:#ffffff" />
      </g>
      <!--<path class="cls-1" d="M13.87,30.69l-1.54-5.19H13.5l1.06,4.27,1-4.27H16.7l-1.49,5.19Z"/><path class="cls-1" d="M18.67,28.66v2h-1.1V25.51h1.62c1.39,0,2.09.5,2.09,1.55a1.42,1.42,0,0,1-1,1.4l1.34,2.23H20.34l-1.11-2Zm.58-.78c.58,0,.89-.24.89-.82s-.31-.77-1-.77h-.49v1.59Z"/>-->
    </g>
  </g>
</svg>

<svg xmlns="http://www.w3.org/2000/svg" viewBox="0 0 33.96 33.96"><defs><style type="text/css">.cls-1{fill:#ffffff;}</style></defs><title>Asset 4</title><g id="Layer_2" data-name="Layer 2"><g id="Layer_1-2" data-name="Layer 1"><g id="Layer_1-3" data-name="Layer 1"><path class="cls-1" d="M27,20.43H21.4c-.92,0-1.42-.72-2.51-2.61l-.07-.12c-.37-.72-1.18-2.29-1.76-2.29s-1.3,1.36-1.75,2.18c-1.26,2.13-2,2.83-2.89,2.83H6.94c-3.83,0-6.94-3.61-6.94-8V8C0,3.61,3.11,0,6.94,0H27C30.84,0,34,3.61,34,8V12.4C34,16.83,30.84,20.43,27,20.43Zm-5.13-2.5H27c2.45,0,4.44-2.48,4.44-5.54V8c0-3.05-2-5.54-4.44-5.54H6.94C4.49,2.5,2.5,5,2.5,8V12.4c0,3.05,2,5.54,4.44,5.54h5.13a10.63,10.63,0,0,0,1.06-1.57c.78-1.42,1.86-3.42,3.89-3.44h0c2.11,0,3.22,2.16,4,3.59l0,.06C21.2,16.84,21.61,17.54,21.88,17.93Z"/></g><!--<path class="cls-1" d="M13.87,30.69l-1.54-5.19H13.5l1.06,4.27,1-4.27H16.7l-1.49,5.19Z"/><path class="cls-1" d="M18.67,28.66v2h-1.1V25.51h1.62c1.39,0,2.09.5,2.09,1.55a1.42,1.42,0,0,1-1,1.4l1.34,2.23H20.34l-1.11-2Zm.58-.78c.58,0,.89-.24.89-.82s-.31-.77-1-.77h-.49v1.59Z"/>--></g></g></svg>
